frontend/Idle/src/assets/images/optionArrowRight.svg

<svg width="16" height="16" viewBox="0 0 16 16" fill="none" xmlns="https://www.w3.org/2000/svg">
<path d="M5.31442 13.0215C5.1369 12.844 5.12077 12.5662 5.266 12.3705L5.31442 12.3144L9.6273 8.0013L5.31441 3.68819C5.1369 3.51068 5.12077 3.2329 5.266 3.03716L5.31441 2.98108C5.49193 2.80357 5.7697 2.78743 5.96544 2.93267L6.02152 2.98108L10.6882 7.64775C10.8657 7.82526 10.8818 8.10304 10.7366 8.29878L10.6882 8.35486L6.02152 13.0215C5.82626 13.2168 5.50968 13.2168 5.31442 13.0215Z" fill="#1A3276"/>
</svg>

<svg width="16" height="16" fill="none" xmlns="https://www.w3.org/2000/svg"><path d="M5.314 13.021a.5.5 0 0 1-.048-.65l.048-.057 4.313-4.313-4.313-4.313a.5.5 0 0 1-.048-.65l.048-.057a.5.5 0 0 1 .651-.048l.057.048 4.666 4.667a.5.5 0 0 1 .049.65l-.049.057-4.666 4.666a.5.5 0 0 1-.708 0z" fill="#1A3276"/></svg>
